packages/dnb-ui-lib/assets/icons/printer.svg

<svg width="16" height="17" viewBox="0 0 16 17" fill="none" xmlns="http://www.w3.org/2000/svg">
<path d="M3.8 11.0167H1.93333C1.41787 11.0167 1 10.5988 1 10.0833V5.41667C1 4.9012 1.41787 4.48333 1.93333 4.48333H14.0667C14.5821 4.48333 15 4.9012 15 5.41667V10.0833C15 10.5988 14.5821 11.0167 14.0667 11.0167H12.2M3.8 8.21667H12.2V14.75H3.8V8.21667ZM12.2 4.48333H3.8V1.68333C3.8 1.16787 4.21787 0.75 4.73333 0.75H11.2667C11.7821 0.75 12.2 1.16787 12.2 1.68333V4.48333Z" stroke="black" stroke-width="1.5" stroke-linecap="round" stroke-linejoin="round"/>
</svg>

<svg width="16" height="16" viewBox="0 0 16 17" fill="none" xmlns="http://www.w3.org/2000/svg"><path d="M3.8 11.017H1.933A.933.933 0 011 10.083V5.417c0-.516.418-.934.933-.934h12.134c.515 0 .933.418.933.934v4.666a.933.933 0 01-.933.934H12.2m-8.4-2.8h8.4v6.533H3.8V8.217zm8.4-3.734H3.8v-2.8c0-.515.418-.933.933-.933h6.534c.515 0 .933.418.933.933v2.8z" stroke="#000" stroke-width="1.5" stroke-linecap="round" stroke-linejoin="round"/></svg>
